cy/bank-outline-alerted.svg

<svg viewBox="0 0 36 36" xmlns="http://www.w3.org/2000/svg" height="1em" width="1em">
  <path d="M4 26a1 1 0 0 0 1 1h26a1 1 0 0 0 0-2h-3v-7.37h-2V25h-7v-7.37h-2V25h-7v-7.37H8V25H5a1 1 0 0 0-1 1Z" class="clr-i-outline--alerted clr-i-outline-path-1--alerted"/>
  <path d="M33 29H3a1 1 0 0 0 0 2h30a1 1 0 0 0 0-2Z" class="clr-i-outline--alerted clr-i-outline-path-2--alerted"/>
  <path d="M22.5 15a3.51 3.51 0 0 1-2.5-1H5v2h26v-1Z" class="clr-i-outline--alerted clr-i-outline-path-3--alerted"/>
  <path d="m19.46 9.74.68-1.17-1.49-.85a.8.8 0 0 0-.8 0l-6.72 3.86h3.21l3.9-2.24 1.1.63c.05-.08.08-.16.12-.23Z" class="clr-i-outline--alerted clr-i-outline-path-4--alerted"/>
  <path d="M22.05 5.25 18 2.92 2.5 11.83a1 1 0 1 0 1 1.73L18 5.23 21.05 7Z" class="clr-i-outline--alerted clr-i-outline-path-5--alerted"/>
  <path d="M26.85 1.14 21.13 11a1.28 1.28 0 0 0 1.1 2h11.45a1.28 1.28 0 0 0 1.1-2l-5.72-9.86a1.28 1.28 0 0 0-2.21 0Z" class="clr-i-outline--alerted clr-i-outline-path-6--alerted clr-i-alert"/>
  <path fill="none" d="M0 0h36v36H0z"/>
</svg>

<svg version="1.1" viewBox="0 0 36 36" preserveAspectRatio="xMidYMid meet" xmlns="http://www.w3.org/2000/svg" height="1em" width="1em">
  <path d="M4,26a1,1,0,0,0,1,1H31a1,1,0,0,0,0-2H28V17.63H26V25H19V17.63H17V25H10V17.63H8V25H5A1,1,0,0,0,4,26Z" class="clr-i-outline--alerted clr-i-outline-path-1--alerted"/>
  <path d="M33,29H3a1,1,0,0,0,0,2H33a1,1,0,0,0,0-2Z" class="clr-i-outline--alerted clr-i-outline-path-2--alerted"/>
  <path d="M22.5,15A3.51,3.51,0,0,1,20,14H5v2H31V15Z" class="clr-i-outline--alerted clr-i-outline-path-3--alerted"/>
  <path d="M19.46,9.74l.68-1.17-1.49-.85a.8.8,0,0,0-.8,0l-6.72,3.86h3.21l3.9-2.24,1.1.63C19.39,9.89,19.42,9.81,19.46,9.74Z" class="clr-i-outline--alerted clr-i-outline-path-4--alerted"/>
  <path d="M22.05,5.25,18,2.92,2.5,11.83a1,1,0,1,0,1,1.73L18,5.23,21.05,7Z" class="clr-i-outline--alerted clr-i-outline-path-5--alerted"/>
  <path d="M26.85,1.14,21.13,11A1.28,1.28,0,0,0,22.23,13H33.68A1.28,1.28,0,0,0,34.78,11L29.06,1.14A1.28,1.28,0,0,0,26.85,1.14Z" class="clr-i-outline--alerted clr-i-outline-path-6--alerted clr-i-alert"/>
  <rect x="0" y="0" width="36" height="36" fill-opacity="0"/>
</svg>
